X: 6360
T: Cashen's Gap
R: reel
M: 4/4
K: Emajor
|:e3 B cBAc|BE ~E2 cEBE|GABG ABce|agfe defg|
eB ~B2 cBAc|BE ~E2 cEBE|GABG ABce|agfe f2 gf:|
egbe gbeg|ceaB egfe|cB ~B2 Bcef|feag effg|
egbe gbeg|ceaB egfe|cB ~B2 Bcef|feag eegf|
egbe gbeg|ceaB egfe|cB ~B2 Bcef|feag effg|
eB ~B2 cBAc|BE ~E2 cEBE|GABG ABce|agfe f2 gf||

